X:1
T:N. Paganini - Sonata for Violin and Guitar in E, Op. 3, No. 6, MS 27/6
T:Op. 3, No. 6, MS 27/6
T:N. Paganini - Sonata for Violin and Guitar in E
T:Sam Rahbari
T:All Rights Reserved
T:All Rights Reserved
T:All Rights Reserved
T:All Rights Reserved
T:All Rights Reserved
T:All Rights Reserved
T:All Rights Reserved
T:All Rights Reserved
T:All Rights Reserved
T:All Rights Reserved
T:All Rights Reserved
T:All Rights Reserved
T:All Rights Reserved
T:All Rights Reserved
Z:All Rights Reserved
%%score 1 2
L:1/8
Q:1/4=68
M:4/4
K:E
V:1 treble nm="Violin"
V:2 treble nm="Guitar"
V:1
 ef =g2- gf e2 | f^^fb/8 a2- a/-a/4-a/8f ^f2 | ba ^^f2- f^f/^^f/ af | %3
 fef/8^^f-f/-f/4-f/8 ^f2- f/-f/4 z/4 z | ef ^^f2- f^f e2 | f=gB/8f/8 a2- a/-a/4^^f ^f2 | %6
 ^^fa b^a/b/ =d'/=c'/=a/=f/ e-e/-e/4 z/4 | ^^f-f/^f/ f4 e-e/-e/4 z/4 | ef =g2- gf e2 | %9
 f^^fb/8 a2- a/-a/4-a/8f ^f2 | ba ^^f2- f^f/^^f/ af | fef/8^^f-f/-f/4-f/8 ^f2- f/-f/4 z/4 z | %12
 ef ^^f2- f^f e2 | f^^fB/8^f/8 a2- a/-a/4^^f ^f2 | ^^fa b^a/b/ ^^c'/^b/=a/=f/ e-e/-e/4 z/4 | %15
 ^^f-f/^f/ f4 e-e/-e/4 z/4 | ^^fa b4 ^^c'^b | ba ^^f2- fb ^^c-c/-c/4 z/4 | %18
 ^^f-f/-f/4^f/4 e-e/-e/4 z/4 =c'-c'/-c'/4a/4 f^^c | ^^c'-c'/-c'/4^b/4 ^a2 =b2- b/-b/4 z/4 b | %20
 =c'b b-b/f/ f2- f/-f/4 z/4 b | ^^c'/8^b/-b/4-b/8=bb-b/a/ ^^f2- ff | fe f2- ffa=g | %23
 feb/8-[b=c'-]/8c'/8b/8-[bc'-]/8[b-c']/8b/8c'/8-[b-c']/8[bc'-]/8c'/8b/8-[bc'-]/8[b-c']/8b/8c'/8-[b-c']/8b/-b/4-b/8^a/b/B-B/-B/4 z/4 | %24
 ef ^^f2- f^feb | %25
 a=g^e^E/=E/4-E/8 z/8 =F/4-F/8 z/8 A/4-A/8 z/8 =c/4-c/8 z/8 =e/4-e/8 z/8 =f/a/=c'/b/ | %26
 ^^c'/^b/a/4-a/8 z/8 =f/4-f/8 z/8 e2- e^^f^f=c' | bd f4 e-e/-e/4 z/4 | ^^fa b4 ^^c'^b | %29
 ba ^^f2- fb ^^c-c/-c/4 z/4 | ^^f-f/-f/4^f/4 e-e/-e/4 z/4 =c'-c'/-c'/4a/4 f^^c | %31
 ^^c'-c'/-c'/4^b/4 ^a2 =b2- b/-b/4 z/4 b | =c'b b-b/f/ f2- f/-f/4 z/4 b | %33
 ^^c'/8^b/-b/4-b/8=bb-b/a/ ^^f2- ff | fe f2- ffa=g | %35
 feb/8-[b=c'-]/8c'/8b/8-[bc'-]/8[b-c']/8b/8c'/8-[b-c']/8[bc'-]/8c'/8b/8-[bc'-]/8[b-c']/8b/8c'/8-[b-c']/8b/-b/4-b/8^a/b/B-B/-B/4 z/4 | %36
 ef ^^f2- f^feb | %37
 a=g^e^E/=E/4-E/8 z/8 =F/4-F/8 z/8 A/4-A/8 z/8 =c/4-c/8 z/8 =e/4-e/8 z/8 =f/a/=c'/b/ | %38
 ^^c'/^b/a/4-a/8 z/8 =f/4-f/8 z/8 e2- e^^f^f=c' | %39
 bd f4 e-e/-e/4 z/4[Q:1/4=67][Q:1/4=66][Q:1/4=65][Q:1/4=64][Q:1/4=63][Q:1/4=62][Q:1/4=61][Q:1/4=60][Q:1/4=59][Q:1/4=58][Q:1/4=57][Q:1/4=56] | %40
[Q:1/4=55] z8[Q:1/4=185] |[M:6/8] z2 z4 | %42
 [eg]/-[eg]/4 z/4 [fa]/-[fa]/4 z/4 [gb]- [gb]/-[gb]/4 z/4 [gb]/-[gb]/4 z/4 [gb]/-[gb]/4 z/4 | %43
 [ac']/-[ac']/4 z/4 [bd']/-[bd']/4 z/4 [c'e']- [c'e']/-[c'e']/4 z/4 [c'e']/-[c'e']/4 z/4 [c'e']/-[c'e']/4 z/4 | %44
 [bd']/-[bd']/4 z/4 [ac']/-[ac']/4 z/4 [gb]- [gb]/-[gb]/4 z/4 [gb]/-[gb]/4 z/4 [gb]/-[gb]/4 z/4 | %45
 [fa]/-[fa]/4 z/4 [eg]/-[eg]/4 z/4 [Bf]- [Bf]/-[Bf]/4 z/4 [Bf]/-[Bf]/4 z/4 [Bf]/-[Bf]/4 z/4 | %46
 [eg]/-[eg]/4 z/4 [fa]/-[fa]/4 z/4 [gb]- [gb]/-[gb]/4 z/4 [gb]/-[gb]/4 z/4 [gb]/-[gb]/4 z/4 | %47
 [ac']/-[ac']/4 z/4 [bd']/-[bd']/4 z/4 [c'e']- [c'e']/-[c'e']/4 z/4 [c'e']/-[c'e']/4 z/4 [c'e']/-[c'e']/4 z/4 | %48
 [bd']/-[bd']/4 z/4 [ac']/-[ac']/4 z/4 [gb]/-[gb]/4 z/4 [fa]/-[fa]/4 z/4 [eg]/-[eg]/4 z/4 [fa]/-[fa]/4 z/4 | %49
 [eg]/-[eg]/4 z/4 [Bf]/-[Bf]/4 z/4 [eg]2- [eg]/-[eg]/4 z/4 z | %50
 [EG]/-[EG]/4 z/4 [FA]/-[FA]/4 z/4 [GB]- [GB]/-[GB]/4 z/4 [GB]/-[GB]/4 z/4 [GB]/-[GB]/4 z/4 | %51
 [Ac]/-[Ac]/4 z/4 [Bd]/-[Bd]/4 z/4 [ce]- [ce]/-[ce]/4 z/4 [ce]/-[ce]/4 z/4 [ce]/-[ce]/4 z/4 | %52
 [Bd]/-[Bd]/4 z/4 [Ac]/-[Ac]/4 z/4 [GB]- [GB]/-[GB]/4 z/4 [GB]/-[GB]/4 z/4 [GB]/-[GB]/4 z/4 | %53
 [FA]/-[FA]/4 z/4 [EG]/-[EG]/4 z/4 [B,F]- [B,F]/-[B,F]/4 z/4 [B,F]/-[B,F]/4 z/4 [B,F]/-[B,F]/4 z/4 | %54
 [EG]/-[EG]/4 z/4 [FA]/-[FA]/4 z/4 [GB]- [GB]/-[GB]/4 z/4 [GB]/-[GB]/4 z/4 [GB]/-[GB]/4 z/4 | %55
 [Ac]/-[Ac]/4 z/4 [Bd]/-[Bd]/4 z/4 [ce]- [ce]/-[ce]/4 z/4 [ce]/-[ce]/4 z/4 [ce]/-[ce]/4 z/4 | %56
 [Bd]/-[Bd]/4 z/4 [Ac]/-[Ac]/4 z/4 [GB]/-[GB]/4 z/4 [FA]/-[FA]/4 z/4 [EG]/-[EG]/4 z/4 [FA]/-[FA]/4 z/4 | %57
 [EG]/-[EG]/4 z/4 [B,F]/-[B,F]/4 z/4 [EG]2- [EG]/-[EG]/4 z/4 z | %58
 z2 [fa]- [fa]/-[fa]/4 z/4 [df]/-[df]/4 z/4 [df]/-[df]/4 z/4 | %59
 [eg]/-[eg]/4 z/4 [fa]/-[fa]/4 z/4 [gb]- [gb]/-[gb]/4 z/4 [eg][eg]- | %60
 [eg]/-[eg]/4 z/4 z [fa]- [fa]/-[fa]/4 z/4 [df]/-[df]/4 z/4 [df]/-[df]/4 z/4 | %61
 [eg]/-[eg]/4 z/4 [fa]/-[fa]/4 z/4 [gb]- [gb]/-[gb]/4 z/4 [eg]/-[eg]/4 z/4 [eg]/-[eg]/4 z/4 | %62
 [eg]/-[eg]/4 z/4 [fa]/-[fa]/4 z/4 [gb]- [gb]/-[gb]/4 z/4 [gb]/-[gb]/4 z/4 [gb]/-[gb]/4 z/4 | %63
 [ac']/-[ac']/4 z/4 [bd']/-[bd']/4 z/4 [c'e']- [c'e']/-[c'e']/4 z/4 [c'e']/-[c'e']/4 z/4 [c'e']/-[c'e']/4 z/4 | %64
 [bd']/-[bd']/4 z/4 [ac']/-[ac']/4 z/4 [gb]/-[gb]/4 z/4 [fa]/-[fa]/4 z/4 [eg]/-[eg]/4 z/4 [fa]/-[fa]/4 z/4 | %65
 [eg]/-[eg]/4 z/4 [Bf]/-[Bf]/4 z/4 [eg]2- [eg]/-[eg]/4 z/4 z | %66
 z2 [FA]- [FA]/-[FA]/4 z/4 [B,F]/-[B,F]/4 z/4 [B,F]/-[B,F]/4 z/4 | %67
 [EG]/-[EG]/4 z/4 [FA]/-[FA]/4 z/4 [GB]- [GB]/-[GB]/4 z/4 [EG][EG]- | %68
 [EG]-[EG]/-[EG]/4 z/4 [FA]- [FA]/-[FA]/4 z/4 [B,F]/-[B,F]/4 z/4 [B,F]/-[B,F]/4 z/4 | %69
 [EG]/-[EG]/4 z/4 [FA]/-[FA]/4 z/4 [GB]- [GB]/-[GB]/4 z/4 [EG]/-[EG]/4 z/4 [EG]/-[EG]/4 z/4 | %70
 [FA]/-[FA]/4 z/4 [GB]/-[GB]/4 z/4 [GB]- [GB]/-[GB]/4 z/4 [GB]/-[GB]/4 z/4 [GB]/-[GB]/4 z/4 | %71
 [Ac]/-[Ac]/4 z/4 [Bd]/-[Bd]/4 z/4 [ce]- [ce]/-[ce]/4 z/4 [ce]/-[ce]/4 z/4 [ce]/-[ce]/4 z/4 | %72
 [Bd]/-[Bd]/4 z/4 [Ac]/-[Ac]/4 z/4 [GB]/-[GB]/4 z/4 [FA]/-[FA]/4 z/4 [EG]/-[EG]/4 z/4 [FA]/-[FA]/4 z/4 | %73
 [EG]/-[EG]/4 z/4 [B,F]/-[B,F]/4 z/4 [EG]2- [EG]/-[EG]/4 z/4[Q:1/4=160] z | z2 B e2 ^^f/^f/ | %75
 e/d/e/f/^^f/a/ b/=c'/b/^a/b/e'/ | ^^f'2 ^f'/e'/ d'/a'/f'/d'/b/a/ | %77
 ^^f/^^f'/e'/b/f/e/ d/b/^a/b/^f/d/ | BB,B e2 ^^f/^f/ | e/d/e/f/^^f/a/ b/=c'/b/^a/b/e'/ | %80
 =g'/4-g'/8 z/8 z/ b'/4-b'/8 z/8 z/ e''/4-e''/8 z/8 z/ B,/E/^^F/B/e/^^f/ | %81
 b/a/^^f/^f/e/d/ E/^^F/B/e/^^f/b/ | e' z B e2 ^^f/^f/ | e/d/e/f/^^f/a/ b/=c'/b/^a/b/e'/ | %84
 =g'2 f'/e'/ d'/a'/f'/d'/b/a/ | ^^f/^^f'/e'/b/f/e/ d/b/^a/b/^f/d/ | BB,B e2 ^^f/^f/ | %87
 e/d/e/f/^^f/a/ b/=c'/b/^a/b/e'/ | %88
 =g'/4-g'/8 z/8 z/ b'/4-b'/8 z/8 z/ e''/4-e''/8 z/8 z/ B,/E/^^F/B/e/^^f/ | %89
 b/a/^^f/^f/e/d/ E/^^F/B/e/^^f/b/ | e' z ^^c [^^F,^^C]/[B^^f]-[Bf]/b/4-b/8 z/8 a/4-a/8 z/8 | %91
 ^^f/4-f/8 z/8 ^f/4-f/8 z/8 e/4-e/8 z/8 ^^c/4-c/8 z/8 ^B/4-B/8 z/8 =B/4-B/8 z/8 A/4-A/8 z/8 ^^F/4-F/8 z/8 ^F/4-F/8 z/8 E/4-E/8 z/8 ^^C/ z/ | %92
 [^^CA=c']-[CAc']/-[CAc']/4 z/4 b/4-b/8 z/8 a/4-a/8 z/8 ^^f/4-f/8 z/8 ^f/4-f/8 z/8 e/4-e/8 z/8 ^^c/4-c/8 z/8 ^B/4-B/8 z/8 =B/4-B/8 z/8 | %93
 A/4-A/8 z/8 ^^F/4-F/8 z/8 ^F/4-F/8 z/8 E/4-E/8 z/8 ^^C/4-C/8 z/8 =C/4-C/8 z/8 B,/4-B,/8 z/8 A,/4-A,/8 z/8 ^^C/4-C/8 z/8 ^B,/4-B,/8 z/8 =B,/4-B,/8 z/8 A,/4-A,/8 z/8 | %94
 ^^F,/4-F,/8 z/8 z/ z B e2 ^^f/^f/ | e/d/e/f/=g/a/ b/=c'/b/^a/b/e'/ | %96
 ^^f'/4-f'/8 z/8 z/ b'/4-b'/8 z/8 z/ e''/4-e''/8 z/8 z/ B,/E/^^F/B/e/^^f/ | %97
 b/a/^^f/^f/e/d/ E/^^F/B/e/^^f/b/ | e' z ^^c [^^F,^^C]/[B^^f]-[Bf]/b/4-b/8 z/8 a/4-a/8 z/8 | %99
 ^^f/4-f/8 z/8 ^f/4-f/8 z/8 e/4-e/8 z/8 ^^c/4-c/8 z/8 ^B/4-B/8 z/8 =B/4-B/8 z/8 A/4-A/8 z/8 ^^F/4-F/8 z/8 ^F/4-F/8 z/8 E/4-E/8 z/8 ^^C/ z/ | %100
 [^^CA=c']-[CAc']/-[CAc']/4 z/4 b/4-b/8 z/8 a/4-a/8 z/8 ^^f/4-f/8 z/8 ^f/4-f/8 z/8 e/4-e/8 z/8 ^^c/4-c/8 z/8 ^B/4-B/8 z/8 =B/4-B/8 z/8 | %101
 A/4-A/8 z/8 ^^F/4-F/8 z/8 ^F/4-F/8 z/8 E/4-E/8 z/8 ^^C/4-C/8 z/8 ^B,/4-B,/8 z/8 =B,/4-B,/8 z/8 A,/4-A,/8 z/8 =D/4-D/8 z/8 ^B,/4-B,/8 z/8 =B,/4-B,/8 z/8 A,/4-A,/8 z/8 | %102
 ^^F,/4-F,/8 z/8 z/ z B e2 ^^f/^f/ | e/d/e/f/^^f/a/ b/=c'/b/^a/b/e'/ | %104
 =g'/4-g'/8 z/8 z/ b'/4-b'/8 z/8 z/ e''/4-e''/8 z/8 z/ B,/E/^^F/B/e/^^f/ | %105
 b/a/^^f/^f/e/d/ E2- E/-E/4 z/4 | %106
[Q:1/4=185] z2 [eg]/-[eg]/4 z/4 [fa]/-[fa]/4 z/4 [gb]-[gb]/-[gb]/4 z/4 | %107
 [gb]/-[gb]/4 z/4 [gb]/-[gb]/4 z/4 [ac']/-[ac']/4 z/4 [bd']/-[bd']/4 z/4 [c'e']-[c'e']/-[c'e']/4 z/4 | %108
 [c'e']/-[c'e']/4 z/4 [c'e']/-[c'e']/4 z/4 [bd']/-[bd']/4 z/4 [ac']/-[ac']/4 z/4 [gb]-[gb]/-[gb]/4 z/4 | %109
 [gb]/-[gb]/4 z/4 [gb]/-[gb]/4 z/4 [fa]/-[fa]/4 z/4 [eg]/-[eg]/4 z/4 [Bf]-[Bf]/-[Bf]/4 z/4 | %110
 [Bf]/-[Bf]/4 z/4 [Bf]/-[Bf]/4 z/4 [eg]/-[eg]/4 z/4 [fa]/-[fa]/4 z/4 [gb]-[gb]/-[gb]/4 z/4 | %111
 [gb]/-[gb]/4 z/4 [gb]/-[gb]/4 z/4 [ac']/-[ac']/4 z/4 [bd']/-[bd']/4 z/4 [c'e']-[c'e']/-[c'e']/4 z/4 | %112
 [c'e']/-[c'e']/4 z/4 [c'e']/-[c'e']/4 z/4 [bd']/-[bd']/4 z/4 [ac']/-[ac']/4 z/4 [gb]/-[gb]/4 z/4 [fa]/-[fa]/4 z/4 | %113
 [eg]/-[eg]/4 z/4 [fa]/-[fa]/4 z/4 [eg]/-[eg]/4 z/4 [Bf]/-[Bf]/4 z/4 [eg]2- | %114
 [eg]/-[eg]/4 z/4 z [EG]/-[EG]/4 z/4 [FA]/-[FA]/4 z/4 [GB]-[GB]/-[GB]/4 z/4 | %115
 [GB]/-[GB]/4 z/4 [GB]/-[GB]/4 z/4 [Ac]/-[Ac]/4 z/4 [Bd]/-[Bd]/4 z/4 [ce]-[ce]/-[ce]/4 z/4 | %116
 [ce]/-[ce]/4 z/4 [ce]/-[ce]/4 z/4 [Bd]/-[Bd]/4 z/4 [Ac]/-[Ac]/4 z/4 [GB]-[GB]/-[GB]/4 z/4 | %117
 [GB]/-[GB]/4 z/4 [GB]/-[GB]/4 z/4 [FA]/-[FA]/4 z/4 [EG]/-[EG]/4 z/4 [B,F]-[B,F]/-[B,F]/4 z/4 | %118
 [B,F]/-[B,F]/4 z/4 [B,F]/-[B,F]/4 z/4 [EG]/-[EG]/4 z/4 [FA]/-[FA]/4 z/4 [GB]-[GB]/-[GB]/4 z/4 | %119
 [GB]/-[GB]/4 z/4 [GB]/-[GB]/4 z/4 [Ac]/-[Ac]/4 z/4 [Bd]/-[Bd]/4 z/4 [ce]-[ce]/-[ce]/4 z/4 | %120
 [ce]/-[ce]/4 z/4 [ce]/-[ce]/4 z/4 [Bd]/-[Bd]/4 z/4 [Ac]/-[Ac]/4 z/4 [GB]/-[GB]/4 z/4 [FA]/-[FA]/4 z/4 | %121
 [EG]/-[EG]/4 z/4 [FA]/-[FA]/4 z/4 [EG]/-[EG]/4 z/4 [B,F]/-[B,F]/4 z/4 [EG]2- | %122
 [EG]/-[EG]/4 z/4 z z2 [fa]-[fa]/-[fa]/4 z/4 | %123
 [df]/-[df]/4 z/4 [df]/-[df]/4 z/4 [eg]/-[eg]/4 z/4 [fa]/-[fa]/4 z/4 [gb]-[gb]/-[gb]/4 z/4 | %124
 [eg][eg]-[eg]/-[eg]/4 z/4 z [fa]-[fa]/-[fa]/4 z/4 | %125
 [df]/-[df]/4 z/4 [df]/-[df]/4 z/4 [eg]/-[eg]/4 z/4 [fa]/-[fa]/4 z/4 [gb]-[gb]/-[gb]/4 z/4 | %126
 [eg]/-[eg]/4 z/4 [eg]/-[eg]/4 z/4 [eg]/-[eg]/4 z/4 [fa]/-[fa]/4 z/4 [gb]-[gb]/-[gb]/4 z/4 | %127
 [gb]/-[gb]/4 z/4 [gb]/-[gb]/4 z/4 [ac']/-[ac']/4 z/4 [bd']/-[bd']/4 z/4 [c'e']-[c'e']/-[c'e']/4 z/4 | %128
 [c'e']/-[c'e']/4 z/4 [c'e']/-[c'e']/4 z/4 [bd']/-[bd']/4 z/4 [ac']/-[ac']/4 z/4 [gb]/-[gb]/4 z/4 [fa]/-[fa]/4 z/4 | %129
 [eg]/-[eg]/4 z/4 [fa]/-[fa]/4 z/4 [eg]/-[eg]/4 z/4 [Bf]/-[Bf]/4 z/4 [eg]2- | %130
 [eg]/-[eg]/4 z/4 z z2 [FA]-[FA]/-[FA]/4 z/4 | %131
 [B,F]/-[B,F]/4 z/4 [B,F]/-[B,F]/4 z/4 [EG]/-[EG]/4 z/4 [FA]/-[FA]/4 z/4 [GB]-[GB]/-[GB]/4 z/4 | %132
 [EG] [EG]2- [EG]/-[EG]/4 z/4 [FA]-[FA]/-[FA]/4 z/4 | %133
 [B,F]/-[B,F]/4 z/4 [B,F]/-[B,F]/4 z/4 [EG]/-[EG]/4 z/4 [FA]/-[FA]/4 z/4 [GB]-[GB]/-[GB]/4 z/4 | %134
 [EG]/-[EG]/4 z/4 [EG]/-[EG]/4 z/4 [FA]/-[FA]/4 z/4 [GB]/-[GB]/4 z/4 [GB]-[GB]/-[GB]/4 z/4 | %135
 [GB]/-[GB]/4 z/4 [GB]/-[GB]/4 z/4 [Ac]/-[Ac]/4 z/4 [Bd]/-[Bd]/4 z/4 [ce]-[ce]/-[ce]/4 z/4 | %136
 [ce]/-[Q:1/4=182][ce]/4 z/4[Q:1/4=179] [ce]/-[Q:1/4=176][ce]/4 z/4[Q:1/4=173] [Bd]/-[Q:1/4=170][Bd]/4 z/4[Q:1/4=167] [Ac]/-[Q:1/4=164][Ac]/4 z/4[Q:1/4=161] [GB]/-[Q:1/4=158][GB]/4 z/4[Q:1/4=155] [FA]/-[Q:1/4=152][FA]/4 z/4[Q:1/4=184][Q:1/4=183][Q:1/4=181][Q:1/4=180][Q:1/4=178][Q:1/4=177][Q:1/4=175][Q:1/4=174][Q:1/4=172][Q:1/4=171][Q:1/4=169][Q:1/4=168][Q:1/4=166][Q:1/4=165][Q:1/4=163][Q:1/4=162][Q:1/4=160][Q:1/4=159][Q:1/4=157][Q:1/4=156][Q:1/4=154][Q:1/4=153][Q:1/4=151][Q:1/4=150] | %137
[Q:1/4=149] [EG]/-[Q:1/4=146][EG]/4 z/4[Q:1/4=143] [FA]/-[Q:1/4=140][FA]/4 z/4[Q:1/4=137] [EG]/-[Q:1/4=134][EG]/4 z/4[Q:1/4=131] [B,F]/-[Q:1/4=128][B,F]/4 z/4[Q:1/4=125] [EG]2-[Q:1/4=148][Q:1/4=147][Q:1/4=145][Q:1/4=144][Q:1/4=142][Q:1/4=141][Q:1/4=139][Q:1/4=138][Q:1/4=136][Q:1/4=135][Q:1/4=133][Q:1/4=132][Q:1/4=130][Q:1/4=129][Q:1/4=127][Q:1/4=126] | %138
 [EG]2- [EG]- [EG]/ z/ z2 |] %139
V:2
 z2 E,-[E,-^^FBe] [E,-E][E,F-B-e-]/[FBe]/ E,-[E,-FBe] | %1
 [E,-E][E,^^F-B-e-]/[FBe]/ B,-[B,-ABf] [B,-D][B,A-B-f-]/[ABf]/ B,-[B,-ABf] | %2
 [B,-D][B,A-B-f-]/[ABf]/ E,-[E,-^^FBe] [E,-E][E,F-B-e-]/[FBe]/ E,[FBe]- | %3
 [FBe]/-[FBe]/4 z/4 ^A, B,-[B,-B] [B,-^A][B,B-]/B/ B,B- | %4
 B-B/-B/4 z/4 E,-[E,-^^FBe] [E,-E][E,F-B-e-]/[FBe]/ E,-[E,-FBe] | %5
 [E,-E][E,^^F-B-e-]/[FBe]/ B,-[B,-ABf] [B,-D][B,A-B-f-]/[ABf]/ B,-[B,-ABf] | %6
 [B,-D][B,A-B-f-]/[ABf]/^^F,/8-[F,^^F]/8-[F,FB]/8-[F,FBe]-[F,FBe]/-[F,FBe]/8A,/8-[A,A]/8-[A,A=c]/8-[A,Ac=f]-[A,Acf]/-[A,Acf]/8B,-[B,e]/-[B,e-]/4e/4 | %7
 B,-[B,d]/-[B,d-]/4d/4 E,-[E,-ABf] [E,-D][E,A-B-f-]/[ABf]/ [E,=GBe]-[E,GBe]/-[E,GBe]/4 z/4 | %8
 z2 E,-[E,-^^FBe] [E,-E][E,F-B-e-]/[FBe]/ E,-[E,-FBe] | %9
 [E,-E][E,=G-B-e-]/[GBe]/ B,-[B,-ABf] [B,-D][B,A-B-f-]/[ABf]/ B,-[B,-ABf] | %10
 [B,-D][B,A-B-f-]/[ABf]/ E,-[E,-=GBe] [E,-E][E,^^F-B-e-]/[FBe]/ E,[FBe]- | %11
 [FBe]/-[FBe]/4 z/4 ^A, B,-[B,-B] [B,-^A][B,B-]/B/ B,B- | %12
 B-B/-B/4 z/4 E,-[E,-^^FBe] [E,-E][E,F-B-e-]/[FBe]/ E,-[E,-FBe] | %13
 [E,-E][E,=G-B-e-]/[GBe]/ B,-[B,-ABf] [B,-D][B,A-B-f-]/[ABf]/ B,-[B,-ABf] | %14
 [B,-D][B,A-B-f-]/[ABf]/^^F,/8-[F,^^F]/8-[F,FB]/8-[F,FBe]-[F,FBe]/-[F,FBe]/8A,/8-[A,A]/8-[A,A=c]/8-[A,Ac=f]-[A,Acf]/-[A,Acf]/8B,-[B,e]/-[B,e-]/4e/4 | %15
 B,-[B,d]/-[B,d-]/4d/4 E,-[E,-ABf] [E,-D][E,A-B-f-]/[ABf]/ [E,^^FBe]-[E,FBe]/-[E,FBe]/4 z/4 | %16
 z2 ^^F,-[F,-B^^f] [F,-^^F][F,B-f-]/[Bf]/ ^^C-C/-C/4 z/4 | %17
 [A=cf]-[Acf]/-[Acf]/4 z/4 ^^F,-[F,-B^^f] [F,-^^F][F,B-f-]/[Bf]/ B,-[B,-Bf] | %18
 [B,-^^F][B,B-^^f-]/[Bf]/ ^B,-B,/-B,/4 z/4 B,/8-[B,F]/8-[B,F^B]/8-[B,FBe]-[B,FBe]/-[B,FBe]/8^^C-C/-C/4 z/4 | %19
 ^^C/8-[CA]/8-[CA=c]/8-[CAcf]-[CAcf]/-[CAcf]/8^^F,-[F,-B^^f] [F,-^^F][F,B-f-]/[Bf]/ [F,FBf]-[F,FBf]/-[F,FBf]/4 z/4 | %20
 z2 F,-[F,-DABf] [F,-DABf][F,D-A-B-f-]/[DABf]/ [DA=cf]-[DAcf]/-[DAcf]/4 z/4 | %21
 z2 E,-[E,-E=GBe] [E,-E^^FBe][E,E-F-B-e-]/[EFBe]/ [EFBe]-[EFBe]/-[EFBe]/4 z/4 | %22
 z2 A,/8-[A,A]/8-[A,A=c]/8-[A,Acf]-[A,Acf]/-[A,Acf]/8 z2 A,2 | ^A,2 [B,B]2- [B,B]-[B,B]/ z/ z2 | %24
 z2 E,-[E,-=GBe] [E,-E][E,^^F-B-e-]/[FBe]/ [E,FBe]-[E,FBe]/-[E,FBe]/4 z/4 | %25
 [E,^^FBe]-[E,FBe]/-[E,FBe]/4 z/4 A,-[A,-=c=f] [A,-A][A,c-f-]/[cf]/ [A,Acf]-[A,Acf]/-[A,Acf]/4 z/4 | %26
 z2 B,-[B,-Be] [B,-=G][B,B-e-]/[Be]/ [B,ABf]-[B,ABf]/-[B,ABf]/4 z/4 | %27
 [DABf]-[DABf]/-[DABf]/4 z/4 E,-[E,-ABf] [E,-D][E,A-B-f-]/[ABf]/ [E,^^FBe]-[E,FBe]/-[E,FBe]/4 z/4 | %28
 z2 ^^F,-[F,-B^^f] [F,-^^F][F,B-f-]/[Bf]/ ^^C-C/-C/4 z/4 | %29
 [A=cf]-[Acf]/-[Acf]/4 z/4 ^^F,-[F,-B^^f] [F,-^^F][F,B-f-]/[Bf]/ B,-[B,-Bf] | %30
 [B,-^^F][B,B-^^f-]/[Bf]/ ^B,-B,/-B,/4 z/4 B,/8-[B,F]/8-[B,F^B]/8-[B,FBe]-[B,FBe]/-[B,FBe]/8^^C-C/-C/4 z/4 | %31
 ^^C/8-[CA]/8-[CA=c]/8-[CAcf]-[CAcf]/-[CAcf]/8^^F,-[F,-B^^f] [F,-^^F][F,B-f-]/[Bf]/ [F,FBf]-[F,FBf]/-[F,FBf]/4 z/4 | %32
 z2 F,-[F,-DABf] [F,-DABf][F,D-A-B-f-]/[DABf]/ [DA=cf]-[DAcf]/-[DAcf]/4 z/4 | %33
 z2 E,-[E,-E^^FBe] [E,-EFBe][E,E-F-B-e-]/[EFBe]/ [EFBe]-[EFBe]/-[EFBe]/4 z/4 | %34
 z2 A,/8-[A,A]/8-[A,A=c]/8-[A,Acf]-[A,Acf]/-[A,Acf]/8 z2 A,2 | ^A,2 [B,B]2- [B,B]-[B,B]/ z/ z2 | %36
 z2 E,-[E,-^^FBe] [E,-E][E,F-B-e-]/[FBe]/ [E,FBe]-[E,FBe]/-[E,FBe]/4 z/4 | %37
 [E,^^FBe]-[E,FBe]/-[E,FBe]/4 z/4 A,-[A,-=c=f] [A,-A][A,c-f-]/[cf]/ [A,Acf]-[A,Acf]/-[A,Acf]/4 z/4 | %38
 z2 B,-[B,-Be] [B,-=G][B,B-e-]/[Be]/ [B,ABf]-[B,ABf]/-[B,ABf]/4 z/4 | %39
 [DABf]-[DABf]/-[DABf]/4 z/4 E,-[E,-ABf] [E,-D][E,A-B-f-]/[ABf]/ E,/4-E,/8-[E,B,]/4-[E,B,E]/4-[E,B,E]/8-[E,B,E=G]/4-[E,B,EG]/8-[E,B,EGB]/4-[E,B,EGBe]/4-[E,B,EGBe]/8- | %40
 [E,B,EGBe]4- [E,B,EGBe]2- [E,B,EGBe]-[E,B,-EGB-e]/[B,B]/8 z/8 z/4 |[M:6/8] z2 z4 | %42
 z2 E,- [E,-B][E,-e][E,-G] | [E,-B][E,e-]/e/E,- [E,-c][E,-e][E,-A] | %44
 [E,-c][E,e-]/e/E,- [E,-B][E,-e][E,-G] | [E,-B][E,e-]/e/B,- [B,-d][B,-f][B,-B] | %46
 [B,-d][B,f-]/f/E,- [E,-B][E,-e][E,-G] | [E,-B][E,e-]/e/E,- [E,-c][E,-e][E,-A] | %48
 [E,-c][E,e-]/e/E,- [E,-B][E,e]/-[E,e-]/4e/4B,- | %49
 [B,-B][B,f]/-[B,f-]/4f/4E,- [E,-B][E,e]/-[E,e-]/4e/4E,- | E,-E,/-E,/4 z/4 E,- [E,-B][E,-e][E,-G] | %51
 [E,-B][E,e-]/e/E,- [E,-c][E,-e][E,-A] | [E,-c][E,e-]/e/E,- [E,-B][E,-e][E,-G] | %53
 [E,-B][E,e-]/e/B,- [B,-d][B,-f][B,-B] | [B,-d][B,f-]/f/E,- [E,-B][E,-e][E,-G] | %55
 [E,-B][E,e-]/e/E,- [E,-c][E,-e][E,-A] | [E,-c][E,e-]/e/E,- [E,-B][E,e]/-[E,e-]/4e/4B,- | %57
 [B,-B][B,f]/-[B,f-]/4f/4E,- [E,-B][E,e]/-[E,e-]/4e/4E,- | E,-E,/-E,/4 z/4 B,- [B,-B][B,-f][B,-A] | %59
 [B,-B][B,f-]/f/E,- [E,-B][E,-e][E,-G] | [E,-B][E,e-]/e/B,- [B,-B][B,-f][B,-A] | %61
 [B,-B][B,f-]/f/E,- [E,-B][E,-e][E,-G] | [E,-B][E,e-]/e/E,- [E,-B][E,-e][E,-G] | %63
 [E,-B][E,e-]/e/E,- [E,-c][E,-e][E,-A] | [E,-c][E,e-]/e/E,- [E,-B][E,e]/-[E,e-]/4e/4B,- | %65
 [B,-B][B,f]/-[B,f-]/4f/4E,- [E,-B][E,e]/-[E,e-]/4e/4E,- | E,-E,/-E,/4 z/4 B,- [B,-B][B,-f][B,-A] | %67
 [B,-B][B,f-]/f/E,- [E,-B][E,-e][E,-G] | [E,-B][E,e-]/e/B,- [B,-B][B,-f][B,-A] | %69
 [B,-B][B,f-]/f/E,- [E,-B][E,-e][E,-G] | [E,-B][E,e-]/e/E,- [E,-B][E,-e][E,-G] | %71
 [E,-B][E,e-]/e/E,- [E,-c][E,-e][E,-A] | [E,-c][E,e-]/e/E,- [E,-B][E,e]/-[E,e-]/4e/4B,- | %73
 [B,-B][B,f]/-[B,f-]/4f/4 [E,GBe]2- [E,GBe]/-[E,GBe]/4 z/4 z | z z2 E,-[E,-B][E,-e] | %75
 [E,-=G][E,-B][E,e-]/e/ E,-[E,-B][E,-e] | [E,-^^F][E,-B][E,e-]/e/ B,-[B,-B][B,f]/-[B,f-]/4f/4 | %77
 E,-[E,-B][E,e]/-[E,e-]/4e/4 [B,B]-[B,B]/-[B,B]/4 z/4 z | %78
 [B,B]-[B,B]/-[B,B]/4 z/4 z E,-[E,-B][E,-e] | [E,-=G][E,-B][E,e-]/e/ E,-[E,-B][E,-e] | %80
 E,2- E,/ z/ [B,=GBe]2- [B,GBe]/-[B,GBe]/4 z/4 | %81
 [B,ABf]2- [B,ABf]/-[B,ABf]/4 z/4 [E,=GBe]2- [E,GBe]/-[E,GBe]/4 z/4 | z z2 E,-[E,-B][E,-e] | %83
 [E,-=G][E,-B][E,e-]/e/ E,-[E,-B][E,-e] | [E,-=G][E,-B][E,e-]/e/ B,-[B,-B][B,f]/-[B,f-]/4f/4 | %85
 E,-[E,-B][E,e]/-[E,e-]/4e/4 [B,B]-[B,B]/-[B,B]/4 z/4 z | %86
 [B,B]-[B,B]/-[B,B]/4 z/4 z E,-[E,-B][E,-e] | [E,-=G][E,-B][E,e-]/e/ E,-[E,-B][E,-e] | %88
 E,2- E,/ z/ [B,=GBe]2- [B,GBe]/-[B,GBe]/4 z/4 | %89
 [B,ABf]2- [B,ABf]/-[B,ABf]/4 z/4 [E,^^FBe]2- [E,FBe]/-[E,FBe]/4 z/4 | %90
 z z2 [^^F,B,^^C^^FB^^f]2- [F,B,CFBf]/-[F,B,CFBf]/4 z/4 | z z2 [^^CA=cf]2- [CAcf]/-[CAcf]/4 z/4 | %92
 [^^CA=cf]2- [CAcf]/-[CAcf]/4 z/4 [CAcf]2- [CAcf]/-[CAcf]/4 z/4 | %93
 z z2 [^^CA=cf]2- [CAcf]/-[CAcf]/4 z/4 | [^^F,^^FB^^f]2- [F,FBf]/-[F,FBf]/4 z/4 E,-[E,-B][E,-e] | %95
 [E,-^^F][E,-B][E,e-]/e/ E,-[E,-B][E,-e] | E,2- E,/ z/ [B,=GBe]2- [B,GBe]/-[B,GBe]/4 z/4 | %97
 [B,ABf]2- [B,ABf]/-[B,ABf]/4 z/4 [E,^^FBe]2- [E,FBe]/-[E,FBe]/4 z/4 | %98
 z z2 [^^F,B,^^C^^FB^^f]2- [F,B,CFBf]/-[F,B,CFBf]/4 z/4 | z z2 [^^CA=cf]2- [CAcf]/-[CAcf]/4 z/4 | %100
 [^^CA=cf]2- [CAcf]/-[CAcf]/4 z/4 [CAcf]2- [CAcf]/-[CAcf]/4 z/4 | %101
 z z2 [^^CA=cf]2- [CAcf]/-[CAcf]/4 z/4 | [^^F,^^FB^^f]2- [F,FBf]/-[F,FBf]/4 z/4 E,-[E,-B][E,-e] | %103
 [E,-=G][E,-B][E,e-]/e/ E,-[E,-B][E,-e] | E,2- E,/ z/ [B,=GBe]2- [B,GBe]/-[B,GBe]/4 z/4 | %105
 [B,ABf]2- [B,ABf]/-[B,ABf]/4 z/4 [E,=GBe]2- [E,GBe]/-[E,GBe]/4 z/4 | z4 E,-[E,-B] | %107
 [E,-e][E,-G][E,-B] [E,e-]/e/E,-[E,-c] | [E,-e][E,-A][E,-c] [E,e-]/e/E,-[E,-B] | %109
 [E,-e][E,-G][E,-B] [E,e-]/e/B,-[B,-d] | [B,-f][B,-B][B,-d] [B,f-]/f/E,-[E,-B] | %111
 [E,-e][E,-G][E,-B] [E,e-]/e/E,-[E,-c] | [E,-e][E,-A][E,-c] [E,e-]/e/E,-[E,-B] | %113
 [E,e]/-[E,e-]/4e/4B,-[B,-B] [B,f]/-[B,f-]/4f/4E,-[E,-B] | %114
 [E,e]/-[E,e-]/4e/4 E,2- E,/-E,/4 z/4 E,-[E,-B] | [E,-e][E,-G][E,-B] [E,e-]/e/E,-[E,-c] | %116
 [E,-e][E,-A][E,-c] [E,e-]/e/E,-[E,-B] | [E,-e][E,-G][E,-B] [E,e-]/e/B,-[B,-d] | %118
 [B,-f][B,-B][B,-d] [B,f-]/f/E,-[E,-B] | [E,-e][E,-G][E,-B] [E,e-]/e/E,-[E,-c] | %120
 [E,-e][E,-A][E,-c] [E,e-]/e/E,-[E,-B] | [E,e]/-[E,e-]/4e/4B,-[B,-B] [B,f]/-[B,f-]/4f/4E,-[E,-B] | %122
 [E,e]/-[E,e-]/4e/4 E,2- E,/-E,/4 z/4 B,-[B,-B] | [B,-f][B,-A][B,-B] [B,f-]/f/E,-[E,-B] | %124
 [E,-e][E,-G][E,-B] [E,e-]/e/B,-[B,-B] | [B,-f][B,-A][B,-B] [B,f-]/f/E,-[E,-B] | %126
 [E,-e][E,-G][E,-B] [E,e-]/e/E,-[E,-B] | [E,-e][E,-G][E,-B] [E,e-]/e/E,-[E,-c] | %128
 [E,-e][E,-A][E,-c] [E,e-]/e/E,-[E,-B] | [E,e]/-[E,e-]/4e/4B,-[B,-B] [B,f]/-[B,f-]/4f/4E,-[E,-B] | %130
 [E,e]/-[E,e-]/4e/4 E,2- E,/-E,/4 z/4 B,-[B,-B] | [B,-f][B,-A][B,-B] [B,f-]/f/E,-[E,-B] | %132
 [E,-e][E,-G][E,-B] [E,e-]/e/B,-[B,-B] | [B,-f][B,-A][B,-B] [B,f-]/f/E,-[E,-B] | %134
 [E,-e][E,-G][E,-B] [E,e-]/e/E,-[E,-B] | [E,-e][E,-G][E,-B] [E,e-]/e/E,-[E,-c] | %136
 [E,-e][E,-A][E,-c] [E,e-]/e/E,-[E,-B] | [E,e]/-[E,e-]/4e/4B,-[B,-B] [B,f]/-[B,f-]/4f/4 [E,GBe]2- | %138
 [E,GBe]2- [E,GBe]- [E,GBe]/ z/ z2 |] %139

